Systematic/src/svg/LeapFrog - LeapPad-content.svg

<svg xmlns="http://www.w3.org/2000/svg" xml:space="preserve" width="320" height="224"><defs><clipPath id="a" clipPathUnits="userSpaceOnUse"><path d="M0 256h256V0H0Z"/></clipPath><clipPath id="b" clipPathUnits="userSpaceOnUse"><path d="M8 212h240V44H8Z"/></clipPath></defs><g clip-path="url(#a)" transform="matrix(1.33333 0 0 -1.33333 -10.667 282.667)"><g clip-path="url(#b)" style="opacity:.5"><path d="M0 0c-30.551 0-59.366-2.998-81.136-8.44-11.035-2.759-19.827-6.047-26.133-9.774C-115.717-23.208-120-29.191-120-36v-132h240v132c0 6.809-4.283 12.792-12.73 17.786-6.306 3.727-15.099 7.015-26.133 9.774C59.366-2.998 30.552 0 0 0" style="fill:#fff;fill-opacity:1;fill-rule:nonzero;stroke:none" transform="translate(128 212)"/></g><path d="M0 0c-61.856 0-112-12.536-112-28v-124h224v124C112-12.536 61.855 0 0 0" style="fill:#4d0099;fill-opacity:1;fill-rule:nonzero;stroke:none" transform="translate(128 204)"/><path d="M0 0a1.997 1.997 0 0 1 2.366-1.963C21.24 1.525 44.015 3.417 68 3.417s46.761-1.892 65.634-5.38A1.997 1.997 0 0 1 136 0c0 .965-.68 1.795-1.627 1.97C115.797 5.393 92.846 7.417 68 7.417S20.203 5.393 1.627 1.97A1.995 1.995 0 0 1 0 0" style="fill:#6700cc;fill-opacity:1;fill-rule:nonzero;stroke:none" transform="translate(60 188.583)"/><path d="M0 0a6 6 0 0 0-12 0A6 6 0 0 0 0 0" style="fill:#00003d;fill-opacity:1;fill-rule:nonzero;stroke:none" transform="translate(52 178)"/><path d="M0 0h-6.011a24.07 24.07 0 0 0-14.162 4.631C-32.702 13.749-58.364 20-88 20s-55.298-6.251-67.828-15.369A24.06 24.06 0 0 0-169.989 0H-176a8 8 0 0 1-8-8v-44c0-11.046 8.954-20 20-20h152C-.954-72 8-63.046 8-52v44a8 8 0 0 1-8 8" style="fill:#fff;fill-opacity:1;fill-rule:nonzero;stroke:none" transform="translate(216 148)"/></g></svg>

<?xml version="1.0" encoding="UTF-8" standalone="no"?>
<svg
   xmlns:dc="http://purl.org/dc/elements/1.1/"
   xmlns:cc="http://creativecommons.org/ns#"
   xmlns:rdf="http://www.w3.org/1999/02/22-rdf-syntax-ns#"
   xmlns:svg="http://www.w3.org/2000/svg"
   xmlns="http://www.w3.org/2000/svg"
   viewBox="0 0 320 224"
   height="224"
   width="320"
   xml:space="preserve"
   id="svg2"
   version="1.1"><metadata
     id="metadata8"><rdf:RDF><cc:Work
         rdf:about=""><dc:format>image/svg+xml</dc:format><dc:type
           rdf:resource="http://purl.org/dc/dcmitype/StillImage" /></cc:Work></rdf:RDF></metadata><defs
     id="defs6"><clipPath
       id="clipPath18"
       clipPathUnits="userSpaceOnUse"><path
         id="path16"
         d="M 0,256 H 256 V 0 H 0 Z" /></clipPath><clipPath
       id="clipPath26"
       clipPathUnits="userSpaceOnUse"><path
         id="path24"
         d="M 8,212 H 248 V 44 H 8 Z" /></clipPath></defs><g
     transform="matrix(1.3333333,0,0,-1.3333333,-10.666666,282.66666)"
     id="g10"><g
       id="g12"><g
         clip-path="url(#clipPath18)"
         id="g14"><g
           id="g20"><g
             id="g22" /><g
             id="g34"><g
               style="opacity:0.5"
               id="g32"
               clip-path="url(#clipPath26)"><g
                 id="g30"
                 transform="translate(128,212)"><path
                   id="path28"
                   style="fill:#ffffff;fill-opacity:1;fill-rule:nonzero;stroke:none"
                   d="m 0,0 c -30.551,0 -59.366,-2.998 -81.136,-8.44 -11.035,-2.759 -19.827,-6.047 -26.133,-9.774 C -115.717,-23.208 -120,-29.191 -120,-36 v -124 -8 h 8 224 8 v 8 124 c 0,6.809 -4.283,12.792 -12.73,17.786 -6.306,3.727 -15.099,7.015 -26.133,9.774 C 59.366,-2.998 30.552,0 0,0" /></g></g></g></g><g
           transform="translate(128,204)"
           id="g36"><path
             id="path38"
             style="fill:#4d0099;fill-opacity:1;fill-rule:nonzero;stroke:none"
             d="M 0,0 C -61.856,0 -112,-12.536 -112,-28 V -152 H 112 V -28 C 112,-12.536 61.855,0 0,0" /></g><g
           transform="translate(60,188.5835)"
           id="g40"><path
             id="path42"
             style="fill:#6700cc;fill-opacity:1;fill-rule:nonzero;stroke:none"
             d="M 0,0 C 0,-1.253 1.134,-2.191 2.366,-1.963 21.24,1.525 44.015,3.417 68,3.417 c 23.985,0 46.761,-1.892 65.634,-5.38 C 134.866,-2.191 136,-1.253 136,0 v 0 c 0,0.965 -0.68,1.795 -1.627,1.97 C 115.797,5.393 92.846,7.417 68,7.417 43.154,7.417 20.203,5.393 1.627,1.97 0.679,1.795 0,0.965 0,0 Z" /></g><g
           transform="translate(52,178)"
           id="g44"><path
             id="path46"
             style="fill:#00003d;fill-opacity:1;fill-rule:nonzero;stroke:none"
             d="m 0,0 c 0,-3.313 -2.687,-6 -6,-6 -3.313,0 -6,2.687 -6,6 0,3.313 2.687,6 6,6 3.313,0 6,-2.687 6,-6" /></g><g
           transform="translate(216,148)"
           id="g48"><path
             id="path50"
             style="fill:#ffffff;fill-opacity:1;fill-rule:nonzero;stroke:none"
             d="M 0,0 H -6.011 C -11.105,0 -16.053,1.633 -20.173,4.631 -32.702,13.749 -58.364,20 -88,20 -117.636,20 -143.298,13.749 -155.828,4.631 -159.947,1.633 -164.894,0 -169.989,0 H -176 c -4.418,0 -8,-3.582 -8,-8 v -44 c 0,-11.046 8.954,-20 20,-20 h 152 c 11.046,0 20,8.954 20,20 V -8 C 8,-3.582 4.418,0 0,0" /></g></g></g></g></svg>
